X: 1
T:Piper's Polka  "rpband"
M:C|
L:1/8
Q:80
C:
S:2/4 March
K:HP
|: f|
{g}A3/2B/2{Gdc}df|
{gfg}fe{A}e2|
{g}A3/2B/2{GdG}ce|  !
{gef}ed{gdG}df| |
{g}A3/2B/2{Gdc}df|
{gfg}fe{A}e2|  !
{g}A3/4{d}A/4{e}A3/4B/4{gcd}ce|
{Gdc}d2{gdG}d:| |:
{gf}g|  !
{ag}a3/2g/2{afg}fa|
{fg}f{g}e{A}e2|
{gf}g3/2f/2{gef}eg|  !
{afg}fd{gdG}d{gf}g|
{ag}a3/2g/2{afg}fa|
{fg}f{g}e{A}e2|  !
{g}A3/4{d}A/4{e}A3/4B/4{gcd}ce|
{Gdc}d2{gdG}d:| |:
{g}f3/4e/4|  !
{Gdc}d3/2B/2{g}A3/4B/4{g}d3/4e/4|
{gfg}fe{A}e2|
{gcd}c3/2B/2{g}A3/4B/4{g}c3/4d/4|  !
{gef}ed{gdG}d{g}f3/4e/4|
{Gdc}d{gde}d3/4B/4{g}A3/4B/4{g}d3/4e/4|
{gfg}fe{A}e2|  !
{g}A3/4{d}A/4{e}A3/4B/4{gcd}ce|
{Gdc}d2{gdG}d:| |:
{gf}g|  !
{ag}a{AGAG}A{ag}a{AGAG}A|
{gfg}fe{A}e2|
{gf}g3/2f/2{g}e3/4f/4g3/4e/4|  !
{gfg}fd{gdG}d|1
{gf}g|
{ag}a{AGAG}A{ag}a{AGAG}A|  !
{gfg}fe{A}e2|
{g}A3/4{d}A/4{e}A3/4B/4{gcd}ce|
{Gdc}d2{gdG}d:|2  !
{g}f3/4e/4|
{Gdc}d3/2B/2{g}A3/4B/4{g}d3/4e/4|
{gfg}fe{A}e2|  !
{g}A3/4{d}A/4{e}A3/4B/4{gcd}ce|
{Gdc}d2{gdG}d|]
